X:1824
T:Bonaparte Crossing The Rhine
M:C
L:1/8
B:O'Neill's 1824
Z:"Transcribed by Bob Safranek, rjs@gsp.org"
K:Am
EF/G/|ABdcB AGEG|cdec d2 ef/g/|aged cAGE|GFGA G2 EF/G/|
ABdcB AGEG|cdec d2 ef/g/|aged cAGE|A2 AB A2||
ef/g/|aged cdef|gega g2 ef/g/|aged cAGE|GFGA G2 EF/G/|
ABdcB AGEG|cdec d2 ef/g/|aged cAGE|A2 AB A2|]
